icons/phone.svg

<?xml version="1.0" standalone="no"?><!-- Generator: Gravit.io --><svg xmlns="http://www.w3.org/2000/svg" xmlns:xlink="http://www.w3.org/1999/xlink" width="96" height="96"><path d=" M 71.54665581351203 92.19417382415922 C 64.97056274847715 92.12346314604056 58.46518036156091 90.42640687119285 52.59619407771257 87.24442635585339 C 43.40380592228745 82.15325753131025 34.98923522616754 75.86000717874997 27.564614023708785 68.43538597629122 C 20.13999282125004 61.01076477383247 13.846742468689762 52.59619407771255 8.755573644146622 43.40380592228743 C 5.573593128807154 37.53481963843909 3.8765368539594434 31.029437251522864 3.805826175840778 24.453344186487968 C 3.8058261758407923 20.776388924317914 5.220039738213892 17.240855018385176 7.765624150485465 14.69527060611361 L 16.250905524724033 6.209989231875042 C 17.735829765215783 4.725064991383277 19.786439430656777 3.805826175840764 21.90775977421641 3.805826175840764 C 24.029080117776047 3.805826175840778 26.07968978321705 4.725064991383292 27.564614023708785 6.209989231875042 L 38.87832252269355 17.523697730859794 C 40.363246763185295 19.008621971351545 41.282485578727815 21.059231636792532 41.282485578727815 23.180551980352192 C 41.282485578727815 25.301872323911823 40.363246763185295 27.35248198935281 38.878322522693544 28.83740622984456 L 33.22146827320117 34.49426047933693 C 32.58507217013327 35.13065658240484 32.37294013577731 36.04989539794735 32.65578284825193 36.898423535371194 C 33.22146827320116 38.171215741506984 33.85786437626906 39.373297269524116 34.70639251369291 40.50466811942259 C 37.81766235091372 44.32304473782996 41.07035354437185 48 44.53517677218593 51.46482322781408 C 48.000000000000014 54.92964645562816 51.676955262170054 58.18233764908628 55.49533188057741 61.293607486307096 C 56.626702730475884 62.14213562373095 57.828784258493016 62.778531726798846 59.101576464628806 63.34421715174808 C 59.95010460205266 63.6270598642227 60.869343417595175 63.41492782986674 61.50573952066307 62.778531726798846 L 67.16259377015544 57.12167747730646 C 68.64751801064719 55.63675323681471 70.69812767608819 54.7175144212722 72.81944801964784 54.7175144212722 C 74.94076836320747 54.7175144212722 76.99137802864846 55.63675323681471 78.4763022691402 57.12167747730646 L 89.79001076812497 68.43538597629123 C 91.27493500861672 69.92031021678298 92.19417382415924 71.97091988222397 92.19417382415924 74.0922402257836 C 92.19417382415924 76.21356056934324 91.27493500861672 78.26417023478423 89.79001076812497 79.749094475276 L 81.30472939388639 88.23437584951455 C 78.75914498161482 90.77996026178613 75.22361107568209 92.19417382415922 71.54665581351203 92.19417382415922 Z  M 71.68807716974935 84.13315651863257 C 66.31406563273158 84.13315651863257 61.15218613006979 82.78965363437814 56.48528137423858 80.24406922210656 C 47.929289321881356 75.50645378815669 40.080404050710676 69.63746750430835 33.22146827320117 62.77853172679884 C 26.36253249569165 55.919595949289324 20.49354621184331 48.070710678118644 15.755930777893447 39.51471862576143 C 13.210346365621874 34.84781386993021 11.866843481367432 29.685934367268416 11.86684348136744 24.31192283025065 C 11.796132803248781 22.8269985897589 12.361818228198011 21.41278502738581 13.422478399977834 20.352124855605993 L 21.9077597742164 11.866843481367425 L 33.22146827320117 23.180551980352192 L 27.564614023708792 28.83740622984456 C 24.7361868989626 31.665833354590745 23.81694808342008 35.83776336359138 25.16045096767453 39.58542930388009 C 25.93826842697973 41.777460325558366 26.998928598759548 43.68664863476205 28.4838528392513 45.45441558772842 C 31.736544032709414 49.555634918610394 35.2013672605235 53.44472221513641 38.87832252269355 57.121677477306456 C 42.5552777848636 60.7986327394765 46.444365081389606 64.26345596729058 50.54558441227158 67.51614716074872 C 52.31335136523795 69.00107140124045 54.222539674441634 70.06173157302028 56.414570696119924 70.83954903232548 C 60.16223663640862 72.18305191657993 64.33416664540925 71.26381310103741 67.16259377015544 68.43538597629123 L 72.81944801964782 62.778531726798846 L 84.13315651863257 74.0922402257836 L 75.64787514439402 82.57752160002218 C 74.58721497261419 83.638181771802 73.1730014102411 84.20386719675123 71.68807716974935 84.13315651863257 Z " fill-rule="evenodd" fill="#454545" stroke="none"/><mask id="_mask_T73U9dXQPdBbUdHoXMLQBuFRvizGkuPh"><path d=" M 71.54665581351203 92.19417382415922 C 64.97056274847715 92.12346314604056 58.46518036156091 90.42640687119285 52.59619407771257 87.24442635585339 C 43.40380592228745 82.15325753131025 34.98923522616754 75.86000717874997 27.564614023708785 68.43538597629122 C 20.13999282125004 61.01076477383247 13.846742468689762 52.59619407771255 8.755573644146622 43.40380592228743 C 5.573593128807154 37.53481963843909 3.8765368539594434 31.029437251522864 3.805826175840778 24.453344186487968 C 3.8058261758407923 20.776388924317914 5.220039738213892 17.240855018385176 7.765624150485465 14.69527060611361 L 16.250905524724033 6.209989231875042 C 17.735829765215783 4.725064991383277 19.786439430656777 3.805826175840764 21.90775977421641 3.805826175840764 C 24.029080117776047 3.805826175840778 26.07968978321705 4.725064991383292 27.564614023708785 6.209989231875042 L 38.87832252269355 17.523697730859794 C 40.363246763185295 19.008621971351545 41.282485578727815 21.059231636792532 41.282485578727815 23.180551980352192 C 41.282485578727815 25.301872323911823 40.363246763185295 27.35248198935281 38.878322522693544 28.83740622984456 L 33.22146827320117 34.49426047933693 C 32.58507217013327 35.13065658240484 32.37294013577731 36.04989539794735 32.65578284825193 36.898423535371194 C 33.22146827320116 38.171215741506984 33.85786437626906 39.373297269524116 34.70639251369291 40.50466811942259 C 37.81766235091372 44.32304473782996 41.07035354437185 48 44.53517677218593 51.46482322781408 C 48.000000000000014 54.92964645562816 51.676955262170054 58.18233764908628 55.49533188057741 61.293607486307096 C 56.626702730475884 62.14213562373095 57.828784258493016 62.778531726798846 59.101576464628806 63.34421715174808 C 59.95010460205266 63.6270598642227 60.869343417595175 63.41492782986674 61.50573952066307 62.778531726798846 L 67.16259377015544 57.12167747730646 C 68.64751801064719 55.63675323681471 70.69812767608819 54.7175144212722 72.81944801964784 54.7175144212722 C 74.94076836320747 54.7175144212722 76.99137802864846 55.63675323681471 78.4763022691402 57.12167747730646 L 89.79001076812497 68.43538597629123 C 91.27493500861672 69.92031021678298 92.19417382415924 71.97091988222397 92.19417382415924 74.0922402257836 C 92.19417382415924 76.21356056934324 91.27493500861672 78.26417023478423 89.79001076812497 79.749094475276 L 81.30472939388639 88.23437584951455 C 78.75914498161482 90.77996026178613 75.22361107568209 92.19417382415922 71.54665581351203 92.19417382415922 Z  M 71.68807716974935 84.13315651863257 C 66.31406563273158 84.13315651863257 61.15218613006979 82.78965363437814 56.48528137423858 80.24406922210656 C 47.929289321881356 75.50645378815669 40.080404050710676 69.63746750430835 33.22146827320117 62.77853172679884 C 26.36253249569165 55.919595949289324 20.49354621184331 48.070710678118644 15.755930777893447 39.51471862576143 C 13.210346365621874 34.84781386993021 11.866843481367432 29.685934367268416 11.86684348136744 24.31192283025065 C 11.796132803248781 22.8269985897589 12.361818228198011 21.41278502738581 13.422478399977834 20.352124855605993 L 21.9077597742164 11.866843481367425 L 33.22146827320117 23.180551980352192 L 27.564614023708792 28.83740622984456 C 24.7361868989626 31.665833354590745 23.81694808342008 35.83776336359138 25.16045096767453 39.58542930388009 C 25.93826842697973 41.777460325558366 26.998928598759548 43.68664863476205 28.4838528392513 45.45441558772842 C 31.736544032709414 49.555634918610394 35.2013672605235 53.44472221513641 38.87832252269355 57.121677477306456 C 42.5552777848636 60.7986327394765 46.444365081389606 64.26345596729058 50.54558441227158 67.51614716074872 C 52.31335136523795 69.00107140124045 54.222539674441634 70.06173157302028 56.414570696119924 70.83954903232548 C 60.16223663640862 72.18305191657993 64.33416664540925 71.26381310103741 67.16259377015544 68.43538597629123 L 72.81944801964782 62.778531726798846 L 84.13315651863257 74.0922402257836 L 75.64787514439402 82.57752160002218 C 74.58721497261419 83.638181771802 73.1730014102411 84.20386719675123 71.68807716974935 84.13315651863257 Z " fill-rule="evenodd" fill="white" stroke="none"/></mask><path d=" M 71.54665581351203 92.19417382415922 C 64.97056274847715 92.12346314604056 58.46518036156091 90.42640687119285 52.59619407771257 87.24442635585339 C 43.40380592228745 82.15325753131025 34.98923522616754 75.86000717874997 27.564614023708785 68.43538597629122 C 20.13999282125004 61.01076477383247 13.846742468689762 52.59619407771255 8.755573644146622 43.40380592228743 C 5.573593128807154 37.53481963843909 3.8765368539594434 31.029437251522864 3.805826175840778 24.453344186487968 C 3.8058261758407923 20.776388924317914 5.220039738213892 17.240855018385176 7.765624150485465 14.69527060611361 L 16.250905524724033 6.209989231875042 C 17.735829765215783 4.725064991383277 19.786439430656777 3.805826175840764 21.90775977421641 3.805826175840764 C 24.029080117776047 3.805826175840778 26.07968978321705 4.725064991383292 27.564614023708785 6.209989231875042 L 38.87832252269355 17.523697730859794 C 40.363246763185295 19.008621971351545 41.282485578727815 21.059231636792532 41.282485578727815 23.180551980352192 C 41.282485578727815 25.301872323911823 40.363246763185295 27.35248198935281 38.878322522693544 28.83740622984456 L 33.22146827320117 34.49426047933693 C 32.58507217013327 35.13065658240484 32.37294013577731 36.04989539794735 32.65578284825193 36.898423535371194 C 33.22146827320116 38.171215741506984 33.85786437626906 39.373297269524116 34.70639251369291 40.50466811942259 C 37.81766235091372 44.32304473782996 41.07035354437185 48 44.53517677218593 51.46482322781408 C 48.000000000000014 54.92964645562816 51.676955262170054 58.18233764908628 55.49533188057741 61.293607486307096 C 56.626702730475884 62.14213562373095 57.828784258493016 62.778531726798846 59.101576464628806 63.34421715174808 C 59.95010460205266 63.6270598642227 60.869343417595175 63.41492782986674 61.50573952066307 62.778531726798846 L 67.16259377015544 57.12167747730646 C 68.64751801064719 55.63675323681471 70.69812767608819 54.7175144212722 72.81944801964784 54.7175144212722 C 74.94076836320747 54.7175144212722 76.99137802864846 55.63675323681471 78.4763022691402 57.12167747730646 L 89.79001076812497 68.43538597629123 C 91.27493500861672 69.92031021678298 92.19417382415924 71.97091988222397 92.19417382415924 74.0922402257836 C 92.19417382415924 76.21356056934324 91.27493500861672 78.26417023478423 89.79001076812497 79.749094475276 L 81.30472939388639 88.23437584951455 C 78.75914498161482 90.77996026178613 75.22361107568209 92.19417382415922 71.54665581351203 92.19417382415922 Z  M 71.68807716974935 84.13315651863257 C 66.31406563273158 84.13315651863257 61.15218613006979 82.78965363437814 56.48528137423858 80.24406922210656 C 47.929289321881356 75.50645378815669 40.080404050710676 69.63746750430835 33.22146827320117 62.77853172679884 C 26.36253249569165 55.919595949289324 20.49354621184331 48.070710678118644 15.755930777893447 39.51471862576143 C 13.210346365621874 34.84781386993021 11.866843481367432 29.685934367268416 11.86684348136744 24.31192283025065 C 11.796132803248781 22.8269985897589 12.361818228198011 21.41278502738581 13.422478399977834 20.352124855605993 L 21.9077597742164 11.866843481367425 L 33.22146827320117 23.180551980352192 L 27.564614023708792 28.83740622984456 C 24.7361868989626 31.665833354590745 23.81694808342008 35.83776336359138 25.16045096767453 39.58542930388009 C 25.93826842697973 41.777460325558366 26.998928598759548 43.68664863476205 28.4838528392513 45.45441558772842 C 31.736544032709414 49.555634918610394 35.2013672605235 53.44472221513641 38.87832252269355 57.121677477306456 C 42.5552777848636 60.7986327394765 46.444365081389606 64.26345596729058 50.54558441227158 67.51614716074872 C 52.31335136523795 69.00107140124045 54.222539674441634 70.06173157302028 56.414570696119924 70.83954903232548 C 60.16223663640862 72.18305191657993 64.33416664540925 71.26381310103741 67.16259377015544 68.43538597629123 L 72.81944801964782 62.778531726798846 L 84.13315651863257 74.0922402257836 L 75.64787514439402 82.57752160002218 C 74.58721497261419 83.638181771802 73.1730014102411 84.20386719675123 71.68807716974935 84.13315651863257 Z " fill-rule="evenodd" fill="none" stroke="none" stroke-width="16" mask="url(#_mask_T73U9dXQPdBbUdHoXMLQBuFRvizGkuPh)"/></svg>

<svg xmlns="http://www.w3.org/2000/svg" width="96" height="96"><path d="M71.547 92.194c-6.576-.07-13.082-1.768-18.95-4.95-9.193-5.09-17.608-11.384-25.032-18.809-7.425-7.424-13.718-15.839-18.81-25.031-3.181-5.87-4.878-12.375-4.95-18.95 0-3.678 1.415-7.213 3.96-9.759l8.486-8.485c1.485-1.485 3.535-2.404 5.657-2.404 2.121 0 4.172.92 5.657 2.404l11.313 11.314c1.485 1.485 2.404 3.535 2.404 5.657 0 2.12-.919 4.171-2.404 5.656l-5.657 5.657a2.332 2.332 0 0 0-.565 2.404c.565 1.273 1.202 2.475 2.05 3.607 3.112 3.818 6.364 7.495 9.83 10.96 3.464 3.465 7.141 6.717 10.96 9.829 1.13.848 2.333 1.485 3.606 2.05.848.283 1.767.07 2.404-.565l5.657-5.657c1.485-1.485 3.535-2.404 5.656-2.404 2.122 0 4.172.919 5.657 2.404L89.79 68.435c1.485 1.485 2.404 3.536 2.404 5.657 0 2.122-.92 4.172-2.404 5.657l-8.485 8.485c-2.546 2.546-6.081 3.96-9.758 3.96zm.141-8.06a31.57 31.57 0 0 1-15.203-3.89C47.93 75.506 40.08 69.637 33.221 62.78c-6.858-6.86-12.727-14.708-17.465-23.264a31.57 31.57 0 0 1-3.89-15.203c-.07-1.485.496-2.9 1.556-3.96l8.486-8.485L33.22 23.18l-5.656 5.656a10.266 10.266 0 0 0-2.405 10.748c.778 2.192 1.839 4.102 3.324 5.87a135.988 135.988 0 0 0 10.394 11.667 135.988 135.988 0 0 0 11.668 10.394c1.767 1.485 3.677 2.546 5.869 3.324a10.266 10.266 0 0 0 10.748-2.405l5.656-5.656 11.314 11.313-8.485 8.486c-1.06 1.06-2.475 1.626-3.96 1.555z" fill-rule="evenodd" fill="#454545"/></svg>
